X: 14208
T: Ful' Tae The Heid O' Troots
R: jig
M: 6/8
K: Dminor
|:"Dm" D3 ABA|D2 D cBA|"C" GEE c2 E|cdA GFE|
"Dm" D3 ABA|D2 D cBA|"Am" GEE c2 E|1 "Gm/Bb" GFE DCE:|2 "Dm" dAF D2 c||
|:"Dm" cde fed|"C" ec_c "Bb" BAf|M:9/8
fge "F" c2 A ABc|
M:6/8
"Dm" cde fed|"C" ec_c "Bb" BAf|1 fge "F" c2 A|
"Am" ABc cdd:|2 "Bb" fge "F" Bce|"Am" a2 c cdd||

